src/assets/bold/lm-arrow-square-clockwise-bold.svg

<svg width="24" height="24" viewBox="0 0 24 24" fill="none" xmlns="http://www.w3.org/2000/svg" fill="currentColor">
<path fill-rule="evenodd" clip-rule="evenodd" d="M4.5 17.25C4.08579 17.25 3.75 16.9142 3.75 16.5L3.75 5.81251C3.75 5.61359 3.82902 5.42283 3.96967 5.28218C4.11032 5.14153 4.30109 5.06251 4.5 5.06251L14.6893 5.06251L13.1572 3.53034C12.8643 3.23745 12.8643 2.76257 13.1572 2.46968C13.4501 2.17679 13.9249 2.17679 14.2178 2.46968L17.0303 5.28218C17.171 5.42283 17.25 5.6136 17.25 5.81251C17.25 6.01142 17.171 6.20219 17.0303 6.34284L14.2178 9.15534C13.9249 9.44823 13.4501 9.44823 13.1572 9.15533C12.8643 8.86244 12.8643 8.38757 13.1572 8.09467L14.6893 6.56251L5.25 6.56251L5.25 16.5C5.25 16.9142 4.91421 17.25 4.5 17.25ZM6.74996 18.1875C6.74996 17.9886 6.82898 17.7978 6.96963 17.6572L9.78214 14.8447C10.075 14.5518 10.5499 14.5518 10.8428 14.8447C11.1357 15.1376 11.1357 15.6124 10.8428 15.9053L9.31063 17.4375L18.75 17.4375L18.75 7.49999C18.75 7.08578 19.0857 6.74999 19.5 6.74999C19.9142 6.74999 20.25 7.08578 20.25 7.49999L20.25 18.1875C20.25 18.3864 20.1709 18.5772 20.0303 18.7178C19.8896 18.8585 19.6989 18.9375 19.5 18.9375L9.31062 18.9375L10.8428 20.4697C11.1357 20.7626 11.1357 21.2374 10.8428 21.5303C10.5499 21.8232 10.075 21.8232 9.78214 21.5303L6.96963 18.7178C6.82898 18.5772 6.74996 18.3864 6.74996 18.1875Z" fill="black"/>
</svg>

<svg xmlns="http://www.w3.org/2000/svg" width="24" height="24" fill="currentColor" viewBox="0 0 24 24">
  <path fill-rule="evenodd" d="M4.5 17.25a.75.75 0 0 1-.75-.75V5.813a.75.75 0 0 1 .75-.75h10.19L13.156 3.53a.75.75 0 0 1 1.06-1.06l2.813 2.812a.75.75 0 0 1 0 1.06l-2.812 2.813a.75.75 0 1 1-1.06-1.06l1.531-1.532H5.25V16.5a.75.75 0 0 1-.75.75Zm2.25.938a.75.75 0 0 1 .22-.53l2.812-2.813a.75.75 0 0 1 1.06 1.06l-1.531 1.533h9.439V7.5a.75.75 0 1 1 1.5 0v10.688a.75.75 0 0 1-.75.75H9.31l1.533 1.532a.75.75 0 1 1-1.06 1.06L6.97 18.718a.75.75 0 0 1-.22-.53Z" clip-rule="evenodd"/>
</svg>
